X:52
T: WAS GLAENZT DORT VOM WALDE IM SONNENSCHEIN
N: B0063
O: Europa, Mitteleuropa, Deutschland
R: Kriegs -, Sieges -, Soldaten - Lied
M: 6/8
L: 1/16
K: Bb
F2 | F2F2F2F2D2F2 | F2B2F2F4
B2 | B2B2B2B2F2B2 | d12 | B6z4
E2 | E2E2E2E2E2G2 | _A3AA2G4
B2 | B2B2B2B2G2B2 | B2e2B2B4
B2 | B2B2B2B2B2B2 | A6c4
F2 | F6F4F2 | _G2F2=E2F4A2 | c6z6 |
B12 | B12 | d6d6 | f6d6 | c3cc2c2B2c2 | d8-d2z2 |
B12 | B12 | d6d6 | f6d6 | c3cc2c2B2c2 | d8-d2z2

@@@ Tune index: 1855
